X: 1
T:Miss Kelly's -- Reel
M:C|
L:1/8
R:reel
B:Ryan's Mammoth Collection
N:236
Z:Contributed by Ray Davies,  ray:davies99.freeserve.co.uk
K:Dlyd
vd2(ad) (fd)(ad) | daaf ecAc | d2(ad) (fd)(ad) | b^gaf ecAc |
 d2(fd) (ad)(fd) | d2(af) ecAc | def^g a2(ga) | bgaf ecAc :|
|:.d.f.B.f .d.f.B.f | .d.f.B.f .e.c.A.c | defg a2(ga) | bgaf ecAc |
dfBf dfBf | dfBf ecAc | defg a2(ga) | bgaf ecAc :|
